packages/tokens/icons/availability/size32Px.svg

<svg viewBox="0 0 32 32" fill="none" xmlns="http://www.w3.org/2000/svg" width="1em" height="1em"><circle cx="11.5" cy="26.5" r="2" stroke="currentColor"/><circle cx="22.5" cy="26.5" r="2" stroke="currentColor"/><path d="M25.5 22.5L9.51314 22.5C8.40857 22.5 7.51314 21.6046 7.51314 20.5L7.51314 5.5C7.51314 4.39543 6.61771 3.5 5.51314 3.5L4 3.5" stroke="currentColor" stroke-linecap="round"/><path d="M22.2087 11.2832L22.2087 11.2832C22.2181 11.267 22.2273 11.251 22.2365 11.2351C22.4765 10.8202 22.6671 10.4908 22.6243 9.96308C22.5959 9.61247 22.4031 8.56488 22.2146 7.59689C22.0242 6.61901 21.8232 5.64766 21.7676 5.42977C21.6912 5.13089 21.5196 4.84569 21.2309 4.66266C20.939 4.4777 20.5867 4.4345 20.2223 4.51052C19.9173 4.57414 18.9311 4.90502 18.0073 5.2297C17.0777 5.55645 16.1103 5.91269 15.835 6.04321C15.3565 6.27004 15.1665 6.59984 14.9272 7.01518C14.918 7.03107 14.9088 7.04708 14.8995 7.06322L11.1086 13.6292C10.7682 14.2188 10.8613 15.0481 11.5097 15.4224L16.6643 18.3984C17.3128 18.7728 18.0774 18.4388 18.4179 17.8491L22.2087 11.2832Z" stroke="currentColor"/><circle cx="19.4575" cy="7.70753" r="0.75" transform="rotate(30 19.4575 7.70753)" stroke="currentColor"/></svg>

<svg xmlns="http://www.w3.org/2000/svg" fill="none" viewBox="0 0 32 32" width="1em" height="1em"><circle cx="11.5" cy="26.5" r="2" stroke="currentColor"/><circle cx="22.5" cy="26.5" r="2" stroke="currentColor"/><path stroke="currentColor" stroke-linecap="round" d="M25.5 22.5H9.513a2 2 0 0 1-2-2v-15a2 2 0 0 0-2-2H4"/><path stroke="currentColor" d="m22.209 11.283.027-.048c.24-.415.431-.744.388-1.272-.028-.35-.22-1.398-.41-2.366-.19-.978-.39-1.95-.446-2.167a1.26 1.26 0 0 0-.537-.767c-.292-.185-.644-.229-1.009-.152-.305.063-1.29.394-2.215.719-.93.326-1.897.683-2.172.813-.479.227-.669.557-.908.972l-.027.048-3.791 6.566c-.34.59-.248 1.42.4 1.793l5.155 2.976c.649.375 1.413.04 1.754-.549l3.79-6.566Z"/><circle cx="19.457" cy="7.708" r=".75" stroke="currentColor" transform="rotate(30 19.457 7.708)"/></svg>
